logos/azure-iot-edge.svg

<?xml version="1.0" encoding="UTF-8" standalone="no"?>
<svg
   xmlns:dc="http://purl.org/dc/elements/1.1/"
   xmlns:cc="http://creativecommons.org/ns#"
   xmlns:rdf="http://www.w3.org/1999/02/22-rdf-syntax-ns#"
   xmlns:svg="http://www.w3.org/2000/svg"
   xmlns="http://www.w3.org/2000/svg"
   xmlns:sodipodi="http://sodipodi.sourceforge.net/DTD/sodipodi-0.dtd"
   xmlns:inkscape="http://www.inkscape.org/namespaces/inkscape"
   aria-hidden="true"
   role="presentation"
   data-slug-id="iot-edge01"
   viewBox="0 0 48.64 48.64"
   version="1.1"
   id="svg897"
   sodipodi:docname="azure-iot-edge.svg"
   inkscape:version="1.0.1 (3bc2e813f5, 2020-09-07)"
   width="256"
   height="256">
  <metadata
     id="metadata903">
    <rdf:RDF>
      <cc:Work
         rdf:about="">
        <dc:format>image/svg+xml</dc:format>
        <dc:type
           rdf:resource="http://purl.org/dc/dcmitype/StillImage" />
        <dc:title></dc:title>
      </cc:Work>
    </rdf:RDF>
  </metadata>
  <defs
     id="defs901" />
  <sodipodi:namedview
     pagecolor="#ffffff"
     bordercolor="#666666"
     borderopacity="1"
     objecttolerance="10"
     gridtolerance="10"
     guidetolerance="10"
     inkscape:pageopacity="0"
     inkscape:pageshadow="2"
     inkscape:window-width="2560"
     inkscape:window-height="1361"
     id="namedview899"
     showgrid="false"
     inkscape:zoom="2.6510418"
     inkscape:cx="3.2805808"
     inkscape:cy="106.47621"
     inkscape:window-x="-9"
     inkscape:window-y="-9"
     inkscape:window-maximized="1"
     inkscape:current-layer="svg897"
     inkscape:document-rotation="0"
     scale-x="0.19"
     viewbox-width="51.2" />
  <path
     d="m 9.6449,20.4216 19.3934,4.4739"
     stroke="#006dd6"
     stroke-width="4"
     stroke-linecap="square"
     stroke-dasharray="1, 7"
     id="path869" />
  <path
     d="M 25.2024,9.13013 30.3171,23.6171"
     stroke="#006dd6"
     stroke-width="4"
     stroke-linecap="square"
     stroke-dasharray="1, 1"
     id="path871" />
  <path
     d="m 31.168,27.0249 5.9671,10.6523"
     stroke="#006dd6"
     stroke-width="4"
     stroke-linecap="square"
     stroke-dasharray="1, 7"
     id="path873" />
  <path
     fill-rule="evenodd"
     clip-rule="evenodd"
     d="m 23.0391,37.8633 -0.7105,-1.4502 7.1783,-11.9456 0.7105,1.4506 z"
     fill="#006dd6"
     id="path875" />
  <path
     d="m 26.2386,2.65106 -5.7064,1.74407 c -0.2251,0.0688 -0.3518,0.30701 -0.283,0.53205 l 1.7446,5.70452 c 0.0688,0.2251 0.3071,0.3517 0.5322,0.2829 l 5.7065,-1.744 c 0.2251,-0.0688 0.3518,-0.30701 0.283,-0.53205 L 26.7708,2.93395 C 26.702,2.70891 26.4637,2.58225 26.2386,2.65106 Z"
     fill="#89c402"
     id="path877" />
  <path
     opacity="0.3"
     fill-rule="evenodd"
     clip-rule="evenodd"
     d="M 20.2493,4.92681 C 20.1804,4.70157 20.3058,4.46359 20.5325,4.39429 l 5.7058,-1.74385 c 0.2253,-0.06886 0.3175,0.04536 0.2075,0.25208 l -4.127,7.75928 c -0.1106,0.2081 -0.2558,0.1956 -0.3251,-0.0311 z"
     fill="#ffffff"
     id="path879" />
  <path
     d="m 33.3327,19.9644 h -7.672 c -0.2354,0 -0.4263,0.1908 -0.4263,0.4261 v 7.6696 c 0,0.2353 0.1909,0.4261 0.4263,0.4261 h 7.672 c 0.2354,0 0.4263,-0.1908 0.4263,-0.4261 v -7.6696 c 0,-0.2353 -0.1909,-0.4261 -0.4263,-0.4261 z"
     fill="#89c402"
     id="path881" />
  <path
     opacity="0.3"
     fill-rule="evenodd"
     clip-rule="evenodd"
     d="m 25.2344,20.387 c 0,-0.2334 0.1941,-0.4226 0.4228,-0.4226 h 7.679 c 0.2335,0 0.2889,0.1338 0.1194,0.3033 l -7.9178,7.9152 c -0.1675,0.1675 -0.3034,0.1093 -0.3034,-0.1193 z"
     fill="#ffffff"
     id="path883" />
  <path
     d="m 20.9523,35.6483 -1.9068,2.826 c -0.1316,0.1951 -0.0801,0.4599 0.115,0.5915 l 2.8269,1.9061 c 0.1952,0.1316 0.4601,0.0801 0.5917,-0.1149 l 1.9068,-2.826 c 0.1316,-0.1951 0.0801,-0.4599 -0.1151,-0.5915 L 21.544,35.5334 c -0.1952,-0.1316 -0.4601,-0.0802 -0.5917,0.1149 z"
     fill="#89c402"
     id="path885" />
  <path
     opacity="0.3"
     fill-rule="evenodd"
     clip-rule="evenodd"
     d="m 19.2219,38.7476 c -0.2298,0.0447 -0.3075,-0.0801 -0.1788,-0.2707 l 1.9089,-2.8293 c 0.131,-0.1941 0.3983,-0.243 0.589,-0.1144 l 2.8301,1.9083 c 0.1943,0.131 0.1682,0.2729 -0.0643,0.318 z"
     fill="#ffffff"
     id="path887" />
  <path
     d="m 39.7514,36.4258 -5.1678,2.9826 c -0.2038,0.1177 -0.2737,0.3783 -0.156,0.5821 l 2.9836,5.166 c 0.1177,0.2038 0.3784,0.2736 0.5823,0.156 l 5.1677,-2.9827 c 0.2038,-0.1176 0.2737,-0.3782 0.156,-0.582 l -2.9836,-5.1661 c -0.1177,-0.2038 -0.3784,-0.2736 -0.5822,-0.1559 z"
     fill="#89c402"
     id="path889" />
  <path
     opacity="0.3"
     fill-rule="evenodd"
     clip-rule="evenodd"
     d="m 34.4279,39.9908 c -0.1178,-0.204 -0.0492,-0.4641 0.1562,-0.5826 l 5.167,-2.9822 c 0.2041,-0.1178 0.3196,-0.0272 0.259,0.1989 l -2.2752,8.4884 c -0.061,0.2277 -0.2052,0.2482 -0.3238,0.0429 z"
     fill="#ffffff"
     id="path891" />
  <path
     d="M 11.4269,17.7714 6.48641,16.448 C 6.25903,16.3871 6.02531,16.522 5.96439,16.7493 L 4.6406,21.6882 c -0.06092,0.2273 0.07401,0.4609 0.30139,0.5218 l 4.94048,1.3234 c 0.22733,0.0609 0.46103,-0.074 0.52203,-0.3013 l 1.3238,-4.9389 c 0.0609,-0.2273 -0.074,-0.4609 -0.3014,-0.5218 z"
     fill="#89c402"
     id="path893" />
  <path
     opacity="0.3"
     fill-rule="evenodd"
     clip-rule="evenodd"
     d="m 5.96362,16.7525 c 0.06135,-0.2289 0.29632,-0.3648 0.5256,-0.3034 l 4.93488,1.3219 c 0.2289,0.0613 0.2481,0.207 0.042,0.326 L 4.90274,21.8851 C 4.69703,22.0038 4.57991,21.9149 4.64135,21.6857 Z"
     fill="#ffffff"
     id="path895" />
</svg>

<?xml version="1.0" encoding="UTF-8" standalone="no"?>
<svg
   xmlns:dc="http://purl.org/dc/elements/1.1/"
   xmlns:cc="http://creativecommons.org/ns#"
   xmlns:rdf="http://www.w3.org/1999/02/22-rdf-syntax-ns#"
   xmlns:svg="http://www.w3.org/2000/svg"
   xmlns="http://www.w3.org/2000/svg"
   xmlns:sodipodi="http://sodipodi.sourceforge.net/DTD/sodipodi-0.dtd"
   xmlns:inkscape="http://www.inkscape.org/namespaces/inkscape"
   aria-hidden="true"
   role="presentation"
   data-slug-id="iot-edge01"
   viewBox="0 0 48 48"
   version="1.1"
   id="svg897"
   sodipodi:docname="azure-iot-edge.svg"
   inkscape:version="1.0.1 (3bc2e813f5, 2020-09-07)">
  <metadata
     id="metadata903">
    <rdf:RDF>
      <cc:Work
         rdf:about="">
        <dc:format>image/svg+xml</dc:format>
        <dc:type
           rdf:resource="http://purl.org/dc/dcmitype/StillImage" />
        <dc:title></dc:title>
      </cc:Work>
    </rdf:RDF>
  </metadata>
  <defs
     id="defs901" />
  <sodipodi:namedview
     pagecolor="#ffffff"
     bordercolor="#666666"
     borderopacity="1"
     objecttolerance="10"
     gridtolerance="10"
     guidetolerance="10"
     inkscape:pageopacity="0"
     inkscape:pageshadow="2"
     inkscape:window-width="2560"
     inkscape:window-height="1361"
     id="namedview899"
     showgrid="false"
     inkscape:zoom="10.604167"
     inkscape:cx="24"
     inkscape:cy="24"
     inkscape:window-x="-9"
     inkscape:window-y="-9"
     inkscape:window-maximized="1"
     inkscape:current-layer="svg897" />
  <path
     d="M9.6449 20.4216L29.0383 24.8955"
     stroke="#006DD6"
     stroke-width="4"
     stroke-linecap="square"
     stroke-dasharray="1 7"
     id="path869" />
  <path
     d="M25.2024 9.13013L30.3171 23.6171"
     stroke="#006DD6"
     stroke-width="4"
     stroke-linecap="square"
     stroke-dasharray="1 1"
     id="path871" />
  <path
     d="M31.168 27.0249L37.1351 37.6772"
     stroke="#006DD6"
     stroke-width="4"
     stroke-linecap="square"
     stroke-dasharray="1 7"
     id="path873" />
  <path
     fill-rule="evenodd"
     clip-rule="evenodd"
     d="M23.0391 37.8633L22.3286 36.4131L29.5069 24.4675L30.2174 25.9181L23.0391 37.8633Z"
     fill="#006DD6"
     id="path875" />
  <path
     d="M26.2386 2.65106L20.5322 4.39513C20.3071 4.46393 20.1804 4.70214 20.2492 4.92718L21.9938 10.6317C22.0626 10.8568 22.3009 10.9834 22.526 10.9146L28.2325 9.1706C28.4576 9.1018 28.5843 8.86359 28.5155 8.63855L26.7708 2.93395C26.702 2.70891 26.4637 2.58225 26.2386 2.65106Z"
     fill="#89C402"
     id="path877" />
  <path
     opacity="0.3"
     fill-rule="evenodd"
     clip-rule="evenodd"
     d="M20.2493 4.92681C20.1804 4.70157 20.3058 4.46359 20.5325 4.39429L26.2383 2.65044C26.4636 2.58158 26.5558 2.6958 26.4458 2.90252L22.3188 10.6618C22.2082 10.8699 22.063 10.8574 21.9937 10.6307L20.2493 4.92681Z"
     fill="white"
     id="path879" />
  <path
     d="M33.3327 19.9644H25.6607C25.4253 19.9644 25.2344 20.1552 25.2344 20.3905V28.0601C25.2344 28.2954 25.4253 28.4862 25.6607 28.4862H33.3327C33.5681 28.4862 33.759 28.2954 33.759 28.0601V20.3905C33.759 20.1552 33.5681 19.9644 33.3327 19.9644Z"
     fill="#89C402"
     id="path881" />
  <path
     opacity="0.3"
     fill-rule="evenodd"
     clip-rule="evenodd"
     d="M25.2344 20.387C25.2344 20.1536 25.4285 19.9644 25.6572 19.9644H33.3362C33.5697 19.9644 33.6251 20.0982 33.4556 20.2677L25.5378 28.1829C25.3703 28.3504 25.2344 28.2922 25.2344 28.0636V20.387Z"
     fill="white"
     id="path883" />
  <path
     d="M20.9523 35.6483L19.0455 38.4743C18.9139 38.6694 18.9654 38.9342 19.1605 39.0658L21.9874 40.9719C22.1826 41.1035 22.4475 41.052 22.5791 40.857L24.4859 38.031C24.6175 37.8359 24.566 37.5711 24.3708 37.4395L21.544 35.5334C21.3488 35.4018 21.0839 35.4532 20.9523 35.6483Z"
     fill="#89C402"
     id="path885" />
  <path
     opacity="0.3"
     fill-rule="evenodd"
     clip-rule="evenodd"
     d="M19.2219 38.7476C18.9921 38.7923 18.9144 38.6675 19.0431 38.4769L20.952 35.6476C21.083 35.4535 21.3503 35.4046 21.541 35.5332L24.3711 37.4415C24.5654 37.5725 24.5393 37.7144 24.3068 37.7595L19.2219 38.7476Z"
     fill="white"
     id="path887" />
  <path
     d="M39.7514 36.4258L34.5836 39.4084C34.3798 39.5261 34.3099 39.7867 34.4276 39.9905L37.4112 45.1565C37.5289 45.3603 37.7896 45.4301 37.9935 45.3125L43.1612 42.3298C43.365 42.2122 43.4349 41.9516 43.3172 41.7478L40.3336 36.5817C40.2159 36.3779 39.9552 36.3081 39.7514 36.4258Z"
     fill="#89C402"
     id="path889" />
  <path
     opacity="0.3"
     fill-rule="evenodd"
     clip-rule="evenodd"
     d="M34.4279 39.9908C34.3101 39.7868 34.3787 39.5267 34.5841 39.4082L39.7511 36.426C39.9552 36.3082 40.0707 36.3988 40.0101 36.6249L37.7349 45.1133C37.6739 45.341 37.5297 45.3615 37.4111 45.1562L34.4279 39.9908Z"
     fill="white"
     id="path891" />
  <path
     d="M11.4269 17.7714L6.48641 16.448C6.25903 16.3871 6.02531 16.522 5.96439 16.7493L4.6406 21.6882C4.57968 21.9155 4.71461 22.1491 4.94199 22.21L9.88247 23.5334C10.1098 23.5943 10.3435 23.4594 10.4045 23.2321L11.7283 18.2932C11.7892 18.0659 11.6543 17.8323 11.4269 17.7714Z"
     fill="#89C402"
     id="path893" />
  <path
     opacity="0.3"
     fill-rule="evenodd"
     clip-rule="evenodd"
     d="M5.96362 16.7525C6.02497 16.5236 6.25994 16.3877 6.48922 16.4491L11.4241 17.771C11.653 17.8323 11.6722 17.978 11.4661 18.097L4.90274 21.8851C4.69703 22.0038 4.57991 21.9149 4.64135 21.6857L5.96362 16.7525Z"
     fill="white"
     id="path895" />
</svg>
